assets/icons/banks/germany/postbank.svg

<svg version="1.1" id="Logo" xmlns="http://www.w3.org/2000/svg" x="0" y="0" viewBox="0 0 160 65" xml:space="preserve"><path transform="rotate(-3 80 50)" d="M.5 38.7h159.1v21.4H.5z" fill="#0a3478"></path><path d="M95.8 44.5l2-.1-.1-2.2 3.2-1.2.2 3.2 2.3-.1.1 2.3-2.3.1.2 3.6c.1 1.2.4 1.7 1.4 1.7.3 0 .7-.1 1-.2l.2 2.2-2.1.3c-3 .2-3.8-1.1-3.9-3.4l-.2-3.9-1.9.1-.1-2.4zm-50.2 6.7c-.1-1.4-1-2.6-2.5-2.5-1.7.1-2.3 1.5-2.4 2.8l4.9-.3zm-4.8 1.5c.1 1.7 1.5 3 3.2 3h.1c1-.1 2-.5 2.9-1.1l.1 1.7c-.9.5-1.9.7-2.9.8-3.3.2-5-1.8-5.2-4.9-.1-2.8 1.5-4.9 4.2-5 3.1-.2 4.3 2.1 4.4 5.1l-6.8.4zm-5.1-6.9l-2 .1-.1-2 2-.1.1 2zM33.8 48l1.8-.1.5 9.4-1.8.1-.5-9.4zm-10.4 5.2c0 1.5.9 3.5 2.8 3.4 2-.1 2.7-2.1 2.6-3.7-.1-1.8-1.1-3.5-3-3.4-1.9.2-2.6 2-2.4 3.7m5.6 3.2c-.7 1.1-1.9 1.7-3.2 1.7-2.8.1-4.2-2.3-4.3-4.9-.1-2.5 1.1-4.8 3.8-5 1.6-.1 2.6.5 3.2 1.4l-.3-5.7 1.7-.1.7 13.9-1.7.1.1-1.4zm-15.8-3.1l2.2-.1.2-2.4-2.2.1-.2 2.4zm4.2-7.9l-.3 3.9 1.8-.1.1 1.4-2 .1-.2 2.4 1.8-.1.1 1.4-2 .1-.3 3.9-1.4.1.3-3.9-2.2.1-.3 3.9-1.4.1.3-3.9-1.8.1-.1-1.4 2-.1.2-2.4h-1.8l-.1-1.4 2-.1.3-3.9 1.4-.1-.3 3.9 2.2-.1.3-3.9h1.4zm40.8 5.8c-.1-1.2-.9-2.3-2.2-2.2-1.2.1-2 1.2-1.9 2.6.1 1.4 1.1 2.4 2.2 2.4 1.3-.1 2-1.2 1.9-2.8m3.4-.2c.1 2.8-1.3 5.3-4.1 5.4-1.2.1-2.4-.4-3.1-1.4l.3 5-3.3.2-.7-13.3 3.1-.2.1 1.7c.6-1.4 2-2.1 3.5-2.1 2.5-.1 4.1 2.3 4.2 4.7m8.6.3h-1.4c-1.1.1-2 .5-2 1.4 0 .7.6 1 1.4 1 1.3-.2 2.2-1.3 2-2.4m.5 4.2c0-.5-.1-1-.2-1.5-.5 1.1-1.7 1.9-3 1.9-1.9.1-3.7-.8-3.8-2.8-.2-2.9 3-3.5 4.8-3.6h1.6c-.1-1.3-1.1-1.6-2.3-1.6-1.1 0-2.1.3-3 .9l-.2-2.3c1.2-.5 2.5-.8 3.8-.9 2.5-.1 4.6.8 4.8 3.8l.2 3.6c0 .8.1 1.5.3 2.3l-3 .2zm5.6-.5c1.2.3 2.3.4 3.5.3 2.2-.1 4.5-.9 4.3-3.5-.2-3.7-5.1-2.2-5.2-3.7 0-.5.8-.7 1.5-.7.9-.1 1.8.1 2.6.5l.1-2.3c-1.1-.3-2.3-.5-3.4-.4-1.9.1-4.1 1.1-3.9 3.3.2 3.5 4.9 2.1 4.9 3.7 0 .7-.6.8-1.3.8-1.1 0-2.2-.1-3.2-.5l.1 2.5zm10.4-.6c1.2.3 2.3.4 3.5.3 2.2-.1 4.5-.9 4.3-3.5-.2-3.7-5.1-2.2-5.2-3.7 0-.5.8-.7 1.5-.7.9 0 1.8.1 2.6.5l.1-2.3c-1.1-.3-2.3-.5-3.4-.4-1.9.1-4.1 1.1-3.9 3.3.2 3.5 4.9 2.1 4.9 3.7 0 .7-.6.8-1.3.8-1.1 0-2.2-.1-3.2-.5l.1 2.5zm27.7-5.9c-.1-1.7-.9-3.5-2.8-3.4-1.9.1-2.7 1.9-2.6 3.7.1 1.6 1 3.5 3 3.4 1.9-.1 2.5-2.3 2.4-3.7m-7.6-8.8l1.7-.1.3 5.7c.5-.9 1.4-1.6 3-1.7 2.7-.1 4.2 2 4.3 4.6.1 2.6-.9 5.2-3.8 5.3-1.3.1-2.5-.4-3.3-1.4l.1 1.3-1.7.1-.6-13.8zm17.9 8.5h-1.1c-.9 0-3.3.3-3.2 2 .1.9.9 1.5 1.8 1.4 1.7-.1 2.6-1.2 2.5-2.6v-.8zm-5.3-4c.9-.6 2-1 3.1-1.1 2.7-.1 3.9 1.1 4 3.7l.2 3.9c0 .6.1 1.2.2 1.8l-1.6.1-.1-1.2c-.6 1-1.7 1.6-2.8 1.6-2 .1-3.5-.7-3.6-2.8-.1-2.4 2.4-3.2 4.2-3.3.7 0 1.2-.1 1.9-.1-.1-1.6-.7-2.4-2.5-2.3-1 .1-1.9.4-2.7 1.1l-.3-1.4zm10.8 8.2l1.7-.1-.2-4.4c-.1-2.3.7-3.9 2.7-4 1.5 0 2.1 1.1 2.2 3.3l.3 4.9 1.7-.1-.3-5.6c-.1-2.5-1.3-4-3.7-3.9-1.3 0-2.4.7-3 1.9l-.1-1.5-1.7.1.4 9.4zm11.3-14.5l.7 13.9 1.7-.1-.3-4.8 4.5 4.6 2.5-.1-5.2-5 4.2-4.4-2.4.1-3.6 4-.4-8.3-1.7.1z" fill="#fc0"></path><path d="M50.4 25.5h3.7v-7.1h1.6c4 0 7.2-1.6 7.2-5.9 0-4.5-3.7-5.6-7.8-5.6h-4.7v18.6zm3.8-15.7h1.3c1.9 0 3.6.7 3.6 2.9s-1.7 2.8-3.6 2.8h-1.3V9.8zm47.1 15.7h3.4v-1.7c1 1.3 2.5 2.1 4.1 2.1 4.1 0 5.8-3.5 5.8-7.2 0-3.8-1.6-7.2-5.7-7.2-1.7 0-3.2.8-4.2 2.2V5.4h-3.5l.1 20.1zm3.5-6.9c0-1.9.9-4.4 3.2-4.4 2.3 0 3 2.5 3 4.4 0 1.9-.7 4.5-3.1 4.5-2.3-.1-3.1-2.6-3.1-4.5m42.4 6.9V5.4h3.6v11.8h.1l4.3-5.5h4.2l-5.1 6.2 5.8 7.6h-4.5l-4.6-6.7h-.1v6.7h-3.7zm-15.7 0V11.7h3.4v1.9h.1c1-1.5 2.7-2.3 4.5-2.2 3.3 0 4.7 2.3 4.7 5.4v8.7h-3.6v-7.4c0-1.7 0-4-2.3-4-2.6 0-3.2 2.8-3.2 4.6v6.7l-3.6.1zM88.7 11.9l-.2 2.7c-1-.4-2.1-.6-3.2-.6-1 0-2.1.3-2.1 1.5 0 2.2 6.2.8 6.2 5.8 0 3.2-2.9 4.5-5.8 4.5-1.4 0-2.7-.2-4.1-.6l.2-2.9c1.1.6 2.3.9 3.5.9.9 0 2.4-.3 2.4-1.7 0-2.7-6.2-.9-6.2-5.8 0-3 2.6-4.3 5.4-4.3 1.3 0 2.6.2 3.9.5m3.9 9.5v-7H90v-2.6h2.6V9l3.6-1.1v3.9h3.2v2.6h-3.2v6.4c0 1.2.3 2.3 1.7 2.3.6 0 1.1-.1 1.6-.4l.1 2.8c-.9.2-1.8.3-2.6.3-2.9 0-4.4-1.7-4.4-4.4m-25.7-3.1c0-2.1 1.1-4.2 3.5-4.2s3.5 2 3.5 4.2c0 2.4-.7 4.9-3.5 4.9s-3.5-2.6-3.5-4.9m-3.8.4c0 4 2.6 7.3 7.2 7.3s7.2-3.2 7.2-7.3c0-4.6-3.1-7.4-7.2-7.4-4 0-7.2 2.8-7.2 7.4m56.5 2.8c0-2.1 2.4-2.4 4-2.4h1.6c.1 1-.2 2-.7 2.8-.6.8-1.5 1.3-2.5 1.2-1.4.1-2.4-.4-2.4-1.6m-1.8-6c1.2-.9 2.7-1.5 4.3-1.5 2.1 0 3.1.7 3.1 3h-2c-1.6-.1-3.2.2-4.6.8-1.5.7-2.5 2.3-2.4 3.9 0 2.6 2.4 4.1 4.8 4.1 1.7 0 3.4-.9 4.3-2.4h.1c0 .7.1 1.4.2 2.1h3.2c-.1-1.1-.1-2-.2-3.1 0-1-.1-2.1-.1-3.4v-1.8c0-4.1-1.7-5.8-5.9-5.8-1.6 0-3.3.4-4.8 1v3.1zM16.2.4L33.1 0c-10 5.8-16.8 15.8-18.6 27.2H0C1.1 19.1 7.6 5.7 16.2.4m24.6 10.7c-4.7 3-8 7.8-9 13.3h-4.3c.8-4.4 3.5-10.2 7.7-13.2-.1 0 5.6-.1 5.6-.1" fill="#0a3478"></path><path d="M27.8 6.9l9.9-.3C29.6 11 25.6 19.9 24.9 25.5h-7.5C18 20.9 21.1 12 27.8 6.9" fill="#e10014"></path></svg>

<svg width="161" height="28" viewBox="0 0 161 28" fill="none" xmlns="http://www.w3.org/2000/svg">
<path d="M50.4 25.5H54.1V18.4H55.7C59.7 18.4 62.9 16.8 62.9 12.5C62.9 8 59.2 6.9 55.1 6.9H50.4V25.5ZM54.2 9.8H55.5C57.4 9.8 59.1 10.5 59.1 12.7C59.1 14.9 57.4 15.5 55.5 15.5H54.2V9.8ZM101.3 25.5H104.7V23.8C105.7 25.1 107.2 25.9 108.8 25.9C112.9 25.9 114.6 22.4 114.6 18.7C114.6 14.9 113 11.5 108.9 11.5C107.2 11.5 105.7 12.3 104.7 13.7V5.4H101.2L101.3 25.5ZM104.8 18.6C104.8 16.7 105.7 14.2 108 14.2C110.3 14.2 111 16.7 111 18.6C111 20.5 110.3 23.1 107.9 23.1C105.6 23 104.8 20.5 104.8 18.6ZM147.2 25.5V5.4H150.8V17.2H150.9L155.2 11.7H159.4L154.3 17.9L160.1 25.5H155.6L151 18.8H150.9V25.5H147.2ZM131.5 25.5V11.7H134.9V13.6H135C136 12.1 137.7 11.3 139.5 11.4C142.8 11.4 144.2 13.7 144.2 16.8V25.5H140.6V18.1C140.6 16.4 140.6 14.1 138.3 14.1C135.7 14.1 135.1 16.9 135.1 18.7V25.4L131.5 25.5ZM88.7 11.9L88.5 14.6C87.5 14.2 86.4 14 85.3 14C84.3 14 83.2 14.3 83.2 15.5C83.2 17.7 89.4 16.3 89.4 21.3C89.4 24.5 86.5 25.8 83.6 25.8C82.2 25.8 80.9 25.6 79.5 25.2L79.7 22.3C80.8 22.9 82 23.2 83.2 23.2C84.1 23.2 85.6 22.9 85.6 21.5C85.6 18.8 79.4 20.6 79.4 15.7C79.4 12.7 82 11.4 84.8 11.4C86.1 11.4 87.4 11.6 88.7 11.9ZM92.6 21.4V14.4H90V11.8H92.6V9L96.2 7.9V11.8H99.4V14.4H96.2V20.8C96.2 22 96.5 23.1 97.9 23.1C98.5 23.1 99 23 99.5 22.7L99.6 25.5C98.7 25.7 97.8 25.8 97 25.8C94.1 25.8 92.6 24.1 92.6 21.4ZM66.9 18.3C66.9 16.2 68 14.1 70.4 14.1C72.8 14.1 73.9 16.1 73.9 18.3C73.9 20.7 73.2 23.2 70.4 23.2C67.6 23.2 66.9 20.6 66.9 18.3ZM63.1 18.7C63.1 22.7 65.7 26 70.3 26C74.9 26 77.5 22.8 77.5 18.7C77.5 14.1 74.4 11.3 70.3 11.3C66.3 11.3 63.1 14.1 63.1 18.7ZM119.6 21.5C119.6 19.4 122 19.1 123.6 19.1H125.2C125.3 20.1 125 21.1 124.5 21.9C123.9 22.7 123 23.2 122 23.1C120.6 23.2 119.6 22.7 119.6 21.5ZM117.8 15.5C119 14.6 120.5 14 122.1 14C124.2 14 125.2 14.7 125.2 17H123.2C121.6 16.9 120 17.2 118.6 17.8C117.1 18.5 116.1 20.1 116.2 21.7C116.2 24.3 118.6 25.8 121 25.8C122.7 25.8 124.4 24.9 125.3 23.4H125.4C125.4 24.1 125.5 24.8 125.6 25.5H128.8C128.7 24.4 128.7 23.5 128.6 22.4C128.6 21.4 128.5 20.3 128.5 19V17.2C128.5 13.1 126.8 11.4 122.6 11.4C121 11.4 119.3 11.8 117.8 12.4V15.5ZM16.2 0.4L33.1 0C23.1 5.8 16.3 15.8 14.5 27.2H0C1.1 19.1 7.6 5.7 16.2 0.4ZM40.8 11.1C36.1 14.1 32.8 18.9 31.8 24.4H27.5C28.3 20 31 14.2 35.2 11.2C35.1 11.2 40.8 11.1 40.8 11.1Z" fill="white"/>
<path d="M27.8004 6.89998L37.7004 6.59998C29.6004 11 25.6004 19.9 24.9004 25.5H17.4004C18.0004 20.9 21.1004 12 27.8004 6.89998Z" fill="white"/>
</svg>
